X: 9444
T: Dans Fisel
R: reel
M: 4/4
K: Dmajor
Bd BA Bc|e2 cd cd|B2 B2 Bd|BA Bc e2|cd cd B2|
B2 Bd BA|Bc e2 cd|cd B2 B2|Bd BA Bc|
e2 cd cd|B2 B2 Bf|fd ef gf|ef ed/c/ de|
fe dc BA|Bc e2 cd|cd B2 B2|Bf fd ef|
gf ef ed/c/|de fe dc|BA Bc e2|cd cd B2|
B2 Bd BA|Bc e2 cd|cd B2 B2|Bd BA Bc|
e2 cd cd|B2 B2 Bd|BA Bc e2|cd cd B2|
B2 Bd BA|Bc e2 cd|cd B2 B2|Bf fd ef|
gf ef ed/c/|de fe dc|BA Bc e2|cd cd B2|
B2 Bf fd|ef gf ef|ed/c/ de fe|dc BA Bc|
e2 cd cd|B2 B2 Bd|BA Bc e2|cd cd B2|
B2 Bd BA|Bc e2 cd|cd B2 B2|Bd BA Bc|
e2 cd cd|B2 B2 Bd|BA Bc e2|cd cd B2|
B2 Bf fd|ef gf ef|ed/c/ de fe|dc BA Bc|
e2 cd cd|B2 B2 Bf|fd ef gf|ef ed/c/ de|
fe dc BA|Bc e2 cd|cd B2 B2||

